src/images/std-icons/std-numbered_list.svg

<svg xmlns="http://www.w3.org/2000/svg" width="512" height="512" viewBox="0 0 512 512">
  <title>numbered list</title>
  <path fill="#000" fill-rule="nonzero" d="M405.333333 234.666667L192 234.666667C180.217925 234.666667 170.666667 244.217925 170.666667 256 170.666667 267.782075 180.217925 277.333333 192 277.333333L405.333333 277.333333C417.115408 277.333333 426.666667 267.782075 426.666667 256 426.666667 244.217925 417.115408 234.666667 405.333333 234.666667zM192 149.333333L405.333333 149.333333C417.115408 149.333333 426.666667 139.782075 426.666667 128 426.666667 116.217925 417.115408 106.666667 405.333333 106.666667L192 106.666667C180.217925 106.666667 170.666667 116.217925 170.666667 128 170.666667 139.782075 180.217925 149.333333 192 149.333333zM405.333333 362.666667L192 362.666667C180.217925 362.666667 170.666667 372.217925 170.666667 384 170.666667 395.782075 180.217925 405.333333 192 405.333333L405.333333 405.333333C417.115408 405.333333 426.666667 395.782075 426.666667 384 426.666667 372.217925 417.115408 362.666667 405.333333 362.666667zM74.6666667 106.666667L85.3333333 106.666667 85.3333333 160C85.3333333 165.891037 90.1089627 170.666667 96 170.666667 101.891037 170.666667 106.666667 165.891037 106.666667 160L106.666667 96C106.649793 90.115966 101.884034 85.3502066 96 85.3333333L74.6666667 85.3333333C68.7756293 85.3333333 64 90.1089627 64 96 64 101.891037 68.7756293 106.666667 74.6666667 106.666667L74.6666667 106.666667zM117.333333 341.333333L74.6666667 341.333333C68.7756293 341.333333 64 346.108963 64 352 64 357.891037 68.7756293 362.666667 74.6666667 362.666667L106.666667 362.666667 106.666667 373.333333 96 373.333333C90.1089627 373.333333 85.3333333 378.108963 85.3333333 384 85.3333333 389.891037 90.1089627 394.666667 96 394.666667L106.666667 394.666667 106.666667 405.333333 74.6666667 405.333333C68.7756293 405.333333 64 410.108963 64 416 64 421.891037 68.7756293 426.666667 74.6666667 426.666667L117.333333 426.666667C123.217174 426.649327 127.982661 421.88384 128 416L128 352C127.983127 346.115966 123.217367 341.350207 117.333333 341.333333zM117.384107 213.333333L74.6666667 213.333333C68.7756293 213.333333 64 218.108963 64 224 64 229.891037 68.7756293 234.666667 74.6666667 234.666667L106.666667 234.666667C106.659027 240.554537 101.88787 245.325694 96 245.333333 78.3348811 245.352616 64.0192823 259.668214 64 277.333333L64 287.898453C64 293.845427 68.8212397 298.666667 74.7682133 298.666667L117.333333 298.666667C123.224371 298.666667 128 293.891037 128 288 128 282.108963 123.224371 277.333333 117.333333 277.333333L85.3333333 277.333333C85.3409727 271.445463 90.1121299 266.674306 96 266.666667 113.665119 266.647384 127.980718 252.331786 128 234.666667L128 223.947947C128 221.132606 126.881278 218.432643 124.890412 216.442016 122.899546 214.45139 120.199447 213.333333 117.384107 213.333333L117.384107 213.333333z"/>
</svg>

<svg xmlns="http://www.w3.org/2000/svg" viewBox="0 0 512 512">
  <title>
    numbered list
  </title>
  <path d="M405.33 234.67H192a21.33 21.33 0 1 0 0 42.66h213.33a21.33 21.33 0 1 0 0-42.66zM192 149.33h213.33a21.33 21.33 0 1 0 0-42.66H192a21.33 21.33 0 1 0 0 42.66zm213.33 213.34H192a21.33 21.33 0 1 0 0 42.66h213.33a21.33 21.33 0 1 0 0-42.66zm-330.66-256h10.66V160a10.67 10.67 0 0 0 21.34 0V96A10.7 10.7 0 0 0 96 85.33H74.67a10.67 10.67 0 1 0 0 21.34zm42.66 234.66H74.67a10.67 10.67 0 0 0 0 21.34h32v10.66H96a10.67 10.67 0 0 0 0 21.34h10.67v10.66h-32a10.67 10.67 0 0 0 0 21.34h42.66A10.7 10.7 0 0 0 128 416v-64a10.7 10.7 0 0 0-10.67-10.67zm.05-128H74.67a10.67 10.67 0 0 0 0 21.34h32c-.01 5.88-4.78 10.66-10.67 10.66a32.03 32.03 0 0 0-32 32v10.57c0 5.95 4.82 10.77 10.77 10.77h42.56a10.67 10.67 0 0 0 0-21.34h-32c.01-5.88 4.78-10.66 10.67-10.66a32.03 32.03 0 0 0 32-32v-10.72a10.61 10.61 0 0 0-10.62-10.62z"/>
</svg>
